X: 27745
T: Morning Star, The
R: reel
M: 4/4
K: Bminor
B2BA BGEF|G2Bd efgd|B2BA BGEF|GBAF G3A:|
Bdef gfeg|fedf edBA|Bdef gfeg|fedf e3d|
Bdef gfeg|fedf edBA|Bddc defg|afbf gfed||

